X: 40419
T: Tom McElvogue's
R: reel
M: 4/4
K: Dmajor
|:D2 (3FED Adcd|ABdB AFEF|D2FD ADFD|EA A2 EGFE|
DE (3FED Adcd|ABdB A2de|faeg fdef|1 dBAG FAEF:|2 dBAG FABc||
|:dA A2 fA A2|dA A2 fAdA|Bgfg efed|ce e2 Aceg|
fddB AFFE|DF F2 ABdA|B2AB GAFD|1 EGFE FABc:|2 EGFE FDEF||

